Newaita-dark/apps/48/hitori.svg

<svg height="48pt" viewBox="0 0 48 48" width="48pt" xmlns="http://www.w3.org/2000/svg" xmlns:xlink="http://www.w3.org/1999/xlink"><linearGradient id="a" gradientUnits="userSpaceOnUse" x1="23.81478" x2="23.81478" y1="41.2056285" y2="43.19019450005"><stop offset="0" stop-opacity=".27451"/><stop offset="1" stop-opacity="0"/></linearGradient><linearGradient id="b"><stop offset="0" stop-opacity=".313725"/><stop offset=".222222" stop-opacity=".27451"/><stop offset="1" stop-opacity="0"/></linearGradient><radialGradient id="c" cx="450.908936" cy="189.579361" gradientTransform="matrix(.00000026 -.117199 -.210958 -.00000015 77.203689 94.547723)" gradientUnits="userSpaceOnUse" r="21.166656" xlink:href="#b"/><radialGradient id="d" cx="450.908936" cy="189.579361" gradientTransform="matrix(-.00000026 .117199 .210958 .00000015 -29.574145 -12.136494)" gradientUnits="userSpaceOnUse" r="21.166656" xlink:href="#b"/><radialGradient id="e" cx="450.908936" cy="189.579361" gradientTransform="matrix(-.00000026 -.117199 .210958 -.00000015 -29.574145 94.547723)" gradientUnits="userSpaceOnUse" r="21.166656" xlink:href="#b"/><radialGradient id="f" cx="450.908936" cy="189.579361" gradientTransform="matrix(.00000026 .117199 -.210958 .00000015 77.203686 -12.136495)" gradientUnits="userSpaceOnUse" r="21.166656" xlink:href="#b"/><linearGradient id="g"><stop offset="0" stop-color="#e0e0e0"/><stop offset="1" stop-color="#eee"/></linearGradient><linearGradient id="h" gradientUnits="userSpaceOnUse" x1="127" x2="127" xlink:href="#g" y1="-31.083334" y2="-158.083328"/><linearGradient id="i" gradientUnits="userSpaceOnUse" x1="381" x2="381" xlink:href="#g" y1="-31.083334" y2="-158.083328"/><linearGradient id="j"><stop offset="0" stop-color="#ef5350"/><stop offset="1" stop-color="#e57373"/></linearGradient><linearGradient id="k" gradientUnits="userSpaceOnUse" x1="127" x2="127" xlink:href="#j" y1="222.916672" y2="95.916664"/><linearGradient id="l" gradientUnits="userSpaceOnUse" x1="127" x2="127" xlink:href="#g" y1="95.916664" y2="-31.083334"/><linearGradient id="m" gradientUnits="userSpaceOnUse" x1="381" x2="381" xlink:href="#g" y1="222.916672" y2="95.916664"/><linearGradient id="n" gradientUnits="userSpaceOnUse" x1="381" x2="381" y1="95.916664" y2="-31.083334"><stop offset="0" stop-color="#81c784"/><stop offset="1" stop-color="#a5d6a7"/></linearGradient><linearGradient id="o" gradientUnits="userSpaceOnUse" x1="254" x2="254" xlink:href="#g" y1="95.916664" y2="-31.083334"/><linearGradient id="p" gradientUnits="userSpaceOnUse" x1="254" x2="254" xlink:href="#j" y1="222.916672" y2="95.916664"/><linearGradient id="q" gradientUnits="userSpaceOnUse" x1="254" x2="254" y1="-31.083334" y2="-158.083328"><stop offset="0" stop-color="#424242"/><stop offset="1" stop-color="#616161"/></linearGradient><path d="m9.921875 41.132812h27.785156v2.132813h-27.785156zm0 0" fill="url(#a)"/><path d="m37.707031 41.207031h3.96875v-1.984375h-3.96875zm0 0" fill="url(#c)"/><path d="m9.921875 41.207031h-3.96875v1.984375h3.96875zm0 0" fill="url(#d)"/><path d="m9.921875 41.207031h-3.96875v-1.984375h3.96875zm0 0" fill="url(#e)"/><path d="m37.707031 41.207031h3.96875v1.984375h-3.96875zm0 0" fill="url(#f)"/><g stroke="#212121" stroke-linecap="round" stroke-width="3"><path d="m84.658582-158.088768h105.823228c11.707215 0 21.164645 9.499093 21.164645 21.164645v105.823228c0 11.707216-9.45743 21.164646-21.164645 21.164646h-105.823228c-11.665552 0-21.164645-9.45743-21.164645-21.164646v-105.823228c0-11.665552 9.499093-21.164645 21.164645-21.164645zm0 0" fill="url(#h)" transform="matrix(.093759 0 0 .093759 0 20.158175)"/><path d="m317.511346-158.088768h105.823228c11.707215 0 21.164645 9.499093 21.164645 21.164645v105.823228c0 11.707216-9.45743 21.164646-21.164645 21.164646h-105.823228c-11.707216 0-21.164646-9.45743-21.164646-21.164646v-105.823228c0-11.665552 9.45743-21.164645 21.164646-21.164645zm0 0" fill="url(#i)" transform="matrix(.093759 0 0 .093759 0 20.158175)"/><path d="m84.658582 74.763996h105.823228c11.707215 0 21.164645 9.45743 21.164645 21.164645v105.823228c0 11.707215-9.45743 21.164645-21.164645 21.164645h-105.823228c-11.665552 0-21.164645-9.45743-21.164645-21.164645v-105.823228c0-11.707215 9.499093-21.164645 21.164645-21.164645zm0 0" fill="url(#k)" transform="matrix(.093759 0 0 .093759 0 20.158175)"/><path d="m63.493937-31.100895h126.987873v127.029536h-126.987873zm0 0" fill="url(#l)" transform="matrix(.093759 0 0 .093759 0 20.158175)"/><path d="m317.511346 74.763996h105.823228c11.707215 0 21.164645 9.45743 21.164645 21.164645v105.823228c0 11.707215-9.45743 21.164645-21.164645 21.164645h-105.823228c-11.707216 0-21.164646-9.45743-21.164646-21.164645v-105.823228c0-11.707215 9.45743-21.164645 21.164646-21.164645zm0 0" fill="url(#m)" transform="matrix(.093759 0 0 .093759 0 20.158175)"/><path d="m317.511346-31.100895h126.987873v127.029536h-126.987873zm0 0" fill="url(#n)" transform="matrix(.093759 0 0 .093759 0 20.158175)"/><path d="m190.48181-31.100895h127.029536v127.029536h-127.029536zm0 0" fill="url(#o)" transform="matrix(.093759 0 0 .093759 0 20.158175)"/><path d="m190.48181 95.928641h127.029536v126.987873h-127.029536zm0 0" fill="url(#p)" transform="matrix(.093759 0 0 .093759 0 20.158175)"/><path d="m190.48181-158.088768h127.029536v126.987873h-127.029536zm0 0" fill="url(#q)" transform="matrix(.093759 0 0 .093759 0 20.158175)"/></g><path d="m7.9375 5.335938c-1.097656 0-1.984375.886718-1.984375 1.984374v.269532c0-1.097656.886719-1.984375 1.984375-1.984375h31.753906c1.097656 0 1.984375.886719 1.984375 1.984375v-.269532c0-1.097656-.886719-1.984374-1.984375-1.984374zm0 0" fill="#fff" fill-opacity=".784314"/><path d="m7.9375 41.082031c-1.097656 0-1.984375-.886719-1.984375-1.984375v-.273437c0 1.101562.886719 1.984375 1.984375 1.984375h31.753906c1.097656 0 1.984375-.882813 1.984375-1.984375v.273437c0 1.097656-.886719 1.984375-1.984375 1.984375zm0 0" fill-opacity=".235294"/><path d="m7.9375 5.195312c-1.175781 0-2.125.949219-2.125 2.125v31.753907c0 1.175781.949219 2.125 2.125 2.125h31.753906c1.175782 0 2.125-.949219 2.125-2.125v-31.753907c0-1.175781-.949218-2.125-2.125-2.125zm0 .28125h31.753906c1.023438 0 1.84375.820313 1.84375 1.84375v31.753907c0 1.023437-.820312 1.84375-1.84375 1.84375h-31.753906c-1.023438 0-1.84375-.820313-1.84375-1.84375v-31.753907c0-1.023437.820312-1.84375 1.84375-1.84375zm0 0" fill="#212121"/></svg>

<?xml version="1.0" encoding="UTF-8"?>
<svg xmlns="http://www.w3.org/2000/svg" xmlns:xlink="http://www.w3.org/1999/xlink" width="48pt" height="48pt" viewBox="0 0 48 48" version="1.1">
<defs>
<linearGradient id="linear0" gradientUnits="userSpaceOnUse" x1="254" y1="233.5" x2="254" y2="254.666672" gradientTransform="matrix(0.093759,0,0,0.093759,-0.00000572259,19.312902)">
<stop offset="0" style="stop-color:rgb(0%,0%,0%);stop-opacity:0.27451;"/>
<stop offset="1" style="stop-color:rgb(0%,0%,0%);stop-opacity:0;"/>
</linearGradient>
<radialGradient id="radial0" gradientUnits="userSpaceOnUse" cx="450.908936" cy="189.579361" fx="450.908936" fy="189.579361" r="21.166656" gradientTransform="matrix(0.000000261256,-0.117199,-0.210958,-0.000000152308,77.203689,94.547723)">
<stop offset="0" style="stop-color:rgb(0%,0%,0%);stop-opacity:0.313725;"/>
<stop offset="0.222222" style="stop-color:rgb(0%,0%,0%);stop-opacity:0.27451;"/>
<stop offset="1" style="stop-color:rgb(0%,0%,0%);stop-opacity:0;"/>
</radialGradient>
<radialGradient id="radial1" gradientUnits="userSpaceOnUse" cx="450.908936" cy="189.579361" fx="450.908936" fy="189.579361" r="21.166656" gradientTransform="matrix(-0.000000261256,0.117199,0.210958,0.000000152308,-29.574145,-12.136494)">
<stop offset="0" style="stop-color:rgb(0%,0%,0%);stop-opacity:0.313725;"/>
<stop offset="0.222222" style="stop-color:rgb(0%,0%,0%);stop-opacity:0.27451;"/>
<stop offset="1" style="stop-color:rgb(0%,0%,0%);stop-opacity:0;"/>
</radialGradient>
<radialGradient id="radial2" gradientUnits="userSpaceOnUse" cx="450.908936" cy="189.579361" fx="450.908936" fy="189.579361" r="21.166656" gradientTransform="matrix(-0.000000261256,-0.117199,0.210958,-0.000000152308,-29.574145,94.547723)">
<stop offset="0" style="stop-color:rgb(0%,0%,0%);stop-opacity:0.313725;"/>
<stop offset="0.222222" style="stop-color:rgb(0%,0%,0%);stop-opacity:0.27451;"/>
<stop offset="1" style="stop-color:rgb(0%,0%,0%);stop-opacity:0;"/>
</radialGradient>
<radialGradient id="radial3" gradientUnits="userSpaceOnUse" cx="450.908936" cy="189.579361" fx="450.908936" fy="189.579361" r="21.166656" gradientTransform="matrix(0.000000261256,0.117199,-0.210958,0.000000152308,77.203686,-12.136495)">
<stop offset="0" style="stop-color:rgb(0%,0%,0%);stop-opacity:0.313725;"/>
<stop offset="0.222222" style="stop-color:rgb(0%,0%,0%);stop-opacity:0.27451;"/>
<stop offset="1" style="stop-color:rgb(0%,0%,0%);stop-opacity:0;"/>
</radialGradient>
<linearGradient id="linear1" gradientUnits="userSpaceOnUse" x1="127" y1="-31.083334" x2="127" y2="-158.083328" gradientTransform="matrix(1,0,0,1,0,0)">
<stop offset="0" style="stop-color:rgb(87.843137%,87.843137%,87.843137%);stop-opacity:1;"/>
<stop offset="1" style="stop-color:rgb(93.333333%,93.333333%,93.333333%);stop-opacity:1;"/>
</linearGradient>
<linearGradient id="linear2" gradientUnits="userSpaceOnUse" x1="381" y1="-31.083334" x2="381" y2="-158.083328" gradientTransform="matrix(1,0,0,1,0,0)">
<stop offset="0" style="stop-color:rgb(87.843137%,87.843137%,87.843137%);stop-opacity:1;"/>
<stop offset="1" style="stop-color:rgb(93.333333%,93.333333%,93.333333%);stop-opacity:1;"/>
</linearGradient>
<linearGradient id="linear3" gradientUnits="userSpaceOnUse" x1="127" y1="222.916672" x2="127" y2="95.916664" gradientTransform="matrix(1,0,0,1,0,0)">
<stop offset="0" style="stop-color:rgb(93.72549%,32.54902%,31.372549%);stop-opacity:1;"/>
<stop offset="1" style="stop-color:rgb(89.803922%,45.098039%,45.098039%);stop-opacity:1;"/>
</linearGradient>
<linearGradient id="linear4" gradientUnits="userSpaceOnUse" x1="127" y1="95.916664" x2="127" y2="-31.083334" gradientTransform="matrix(1,0,0,1,0,0)">
<stop offset="0" style="stop-color:rgb(87.843137%,87.843137%,87.843137%);stop-opacity:1;"/>
<stop offset="1" style="stop-color:rgb(93.333333%,93.333333%,93.333333%);stop-opacity:1;"/>
</linearGradient>
<linearGradient id="linear5" gradientUnits="userSpaceOnUse" x1="381" y1="222.916672" x2="381" y2="95.916664" gradientTransform="matrix(1,0,0,1,0,0)">
<stop offset="0" style="stop-color:rgb(87.843137%,87.843137%,87.843137%);stop-opacity:1;"/>
<stop offset="1" style="stop-color:rgb(93.333333%,93.333333%,93.333333%);stop-opacity:1;"/>
</linearGradient>
<linearGradient id="linear6" gradientUnits="userSpaceOnUse" x1="381" y1="95.916664" x2="381" y2="-31.083334" gradientTransform="matrix(1,0,0,1,0,0)">
<stop offset="0" style="stop-color:rgb(50.588235%,78.039216%,51.764706%);stop-opacity:1;"/>
<stop offset="1" style="stop-color:rgb(64.705882%,83.921569%,65.490196%);stop-opacity:1;"/>
</linearGradient>
<linearGradient id="linear7" gradientUnits="userSpaceOnUse" x1="254" y1="95.916664" x2="254" y2="-31.083334" gradientTransform="matrix(1,0,0,1,0,0)">
<stop offset="0" style="stop-color:rgb(87.843137%,87.843137%,87.843137%);stop-opacity:1;"/>
<stop offset="1" style="stop-color:rgb(93.333333%,93.333333%,93.333333%);stop-opacity:1;"/>
</linearGradient>
<linearGradient id="linear8" gradientUnits="userSpaceOnUse" x1="254" y1="222.916672" x2="254" y2="95.916664" gradientTransform="matrix(1,0,0,1,0,0)">
<stop offset="0" style="stop-color:rgb(93.72549%,32.54902%,31.372549%);stop-opacity:1;"/>
<stop offset="1" style="stop-color:rgb(89.803922%,45.098039%,45.098039%);stop-opacity:1;"/>
</linearGradient>
<linearGradient id="linear9" gradientUnits="userSpaceOnUse" x1="254" y1="-31.083334" x2="254" y2="-158.083328" gradientTransform="matrix(1,0,0,1,0,0)">
<stop offset="0" style="stop-color:rgb(25.882353%,25.882353%,25.882353%);stop-opacity:1;"/>
<stop offset="1" style="stop-color:rgb(38.039216%,38.039216%,38.039216%);stop-opacity:1;"/>
</linearGradient>
</defs>
<g id="surface1">
<path style=" stroke:none;fill-rule:nonzero;fill:url(#linear0);" d="M 9.921875 41.132812 L 37.707031 41.132812 L 37.707031 43.265625 L 9.921875 43.265625 Z M 9.921875 41.132812 "/>
<path style=" stroke:none;fill-rule:nonzero;fill:url(#radial0);" d="M 37.707031 41.207031 L 41.675781 41.207031 L 41.675781 39.222656 L 37.707031 39.222656 Z M 37.707031 41.207031 "/>
<path style=" stroke:none;fill-rule:nonzero;fill:url(#radial1);" d="M 9.921875 41.207031 L 5.953125 41.207031 L 5.953125 43.191406 L 9.921875 43.191406 Z M 9.921875 41.207031 "/>
<path style=" stroke:none;fill-rule:nonzero;fill:url(#radial2);" d="M 9.921875 41.207031 L 5.953125 41.207031 L 5.953125 39.222656 L 9.921875 39.222656 Z M 9.921875 41.207031 "/>
<path style=" stroke:none;fill-rule:nonzero;fill:url(#radial3);" d="M 37.707031 41.207031 L 41.675781 41.207031 L 41.675781 43.191406 L 37.707031 43.191406 Z M 37.707031 41.207031 "/>
<path style="fill-rule:nonzero;fill:url(#linear1);stroke-width:3;stroke-linecap:round;stroke-linejoin:miter;stroke:rgb(12.941177%,12.941177%,12.941177%);stroke-opacity:1;stroke-miterlimit:4;" d="M 84.658582 -158.088768 L 190.48181 -158.088768 C 202.189025 -158.088768 211.646455 -148.589675 211.646455 -136.924123 L 211.646455 -31.100895 C 211.646455 -19.393679 202.189025 -9.936249 190.48181 -9.936249 L 84.658582 -9.936249 C 72.99303 -9.936249 63.493937 -19.393679 63.493937 -31.100895 L 63.493937 -136.924123 C 63.493937 -148.589675 72.99303 -158.088768 84.658582 -158.088768 Z M 84.658582 -158.088768 " transform="matrix(0.093759,0,0,0.093759,0,20.158175)"/>
<path style="fill-rule:nonzero;fill:url(#linear2);stroke-width:3;stroke-linecap:round;stroke-linejoin:miter;stroke:rgb(12.941177%,12.941177%,12.941177%);stroke-opacity:1;stroke-miterlimit:4;" d="M 317.511346 -158.088768 L 423.334574 -158.088768 C 435.041789 -158.088768 444.499219 -148.589675 444.499219 -136.924123 L 444.499219 -31.100895 C 444.499219 -19.393679 435.041789 -9.936249 423.334574 -9.936249 L 317.511346 -9.936249 C 305.80413 -9.936249 296.3467 -19.393679 296.3467 -31.100895 L 296.3467 -136.924123 C 296.3467 -148.589675 305.80413 -158.088768 317.511346 -158.088768 Z M 317.511346 -158.088768 " transform="matrix(0.093759,0,0,0.093759,0,20.158175)"/>
<path style="fill-rule:nonzero;fill:url(#linear3);stroke-width:3;stroke-linecap:round;stroke-linejoin:miter;stroke:rgb(12.941177%,12.941177%,12.941177%);stroke-opacity:1;stroke-miterlimit:4;" d="M 84.658582 74.763996 L 190.48181 74.763996 C 202.189025 74.763996 211.646455 84.221426 211.646455 95.928641 L 211.646455 201.751869 C 211.646455 213.459084 202.189025 222.916514 190.48181 222.916514 L 84.658582 222.916514 C 72.99303 222.916514 63.493937 213.459084 63.493937 201.751869 L 63.493937 95.928641 C 63.493937 84.221426 72.99303 74.763996 84.658582 74.763996 Z M 84.658582 74.763996 " transform="matrix(0.093759,0,0,0.093759,0,20.158175)"/>
<path style="fill-rule:nonzero;fill:url(#linear4);stroke-width:3;stroke-linecap:round;stroke-linejoin:miter;stroke:rgb(12.941177%,12.941177%,12.941177%);stroke-opacity:1;stroke-miterlimit:4;" d="M 63.493937 -31.100895 L 190.48181 -31.100895 L 190.48181 95.928641 L 63.493937 95.928641 Z M 63.493937 -31.100895 " transform="matrix(0.093759,0,0,0.093759,0,20.158175)"/>
<path style="fill-rule:nonzero;fill:url(#linear5);stroke-width:3;stroke-linecap:round;stroke-linejoin:miter;stroke:rgb(12.941177%,12.941177%,12.941177%);stroke-opacity:1;stroke-miterlimit:4;" d="M 317.511346 74.763996 L 423.334574 74.763996 C 435.041789 74.763996 444.499219 84.221426 444.499219 95.928641 L 444.499219 201.751869 C 444.499219 213.459084 435.041789 222.916514 423.334574 222.916514 L 317.511346 222.916514 C 305.80413 222.916514 296.3467 213.459084 296.3467 201.751869 L 296.3467 95.928641 C 296.3467 84.221426 305.80413 74.763996 317.511346 74.763996 Z M 317.511346 74.763996 " transform="matrix(0.093759,0,0,0.093759,0,20.158175)"/>
<path style="fill-rule:nonzero;fill:url(#linear6);stroke-width:3;stroke-linecap:round;stroke-linejoin:miter;stroke:rgb(12.941177%,12.941177%,12.941177%);stroke-opacity:1;stroke-miterlimit:4;" d="M 317.511346 -31.100895 L 444.499219 -31.100895 L 444.499219 95.928641 L 317.511346 95.928641 Z M 317.511346 -31.100895 " transform="matrix(0.093759,0,0,0.093759,0,20.158175)"/>
<path style="fill-rule:nonzero;fill:url(#linear7);stroke-width:3;stroke-linecap:round;stroke-linejoin:miter;stroke:rgb(12.941177%,12.941177%,12.941177%);stroke-opacity:1;stroke-miterlimit:4;" d="M 190.48181 -31.100895 L 317.511346 -31.100895 L 317.511346 95.928641 L 190.48181 95.928641 Z M 190.48181 -31.100895 " transform="matrix(0.093759,0,0,0.093759,0,20.158175)"/>
<path style="fill-rule:nonzero;fill:url(#linear8);stroke-width:3;stroke-linecap:round;stroke-linejoin:miter;stroke:rgb(12.941177%,12.941177%,12.941177%);stroke-opacity:1;stroke-miterlimit:4;" d="M 190.48181 95.928641 L 317.511346 95.928641 L 317.511346 222.916514 L 190.48181 222.916514 Z M 190.48181 95.928641 " transform="matrix(0.093759,0,0,0.093759,0,20.158175)"/>
<path style="fill-rule:nonzero;fill:url(#linear9);stroke-width:3;stroke-linecap:round;stroke-linejoin:miter;stroke:rgb(12.941177%,12.941177%,12.941177%);stroke-opacity:1;stroke-miterlimit:4;" d="M 190.48181 -158.088768 L 317.511346 -158.088768 L 317.511346 -31.100895 L 190.48181 -31.100895 Z M 190.48181 -158.088768 " transform="matrix(0.093759,0,0,0.093759,0,20.158175)"/>
<path style=" stroke:none;fill-rule:nonzero;fill:rgb(100%,100%,100%);fill-opacity:0.784314;" d="M 7.9375 5.335938 C 6.839844 5.335938 5.953125 6.222656 5.953125 7.320312 L 5.953125 7.589844 C 5.953125 6.492188 6.839844 5.605469 7.9375 5.605469 L 39.691406 5.605469 C 40.789062 5.605469 41.675781 6.492188 41.675781 7.589844 L 41.675781 7.320312 C 41.675781 6.222656 40.789062 5.335938 39.691406 5.335938 Z M 7.9375 5.335938 "/>
<path style=" stroke:none;fill-rule:nonzero;fill:rgb(0%,0%,0%);fill-opacity:0.235294;" d="M 7.9375 41.082031 C 6.839844 41.082031 5.953125 40.195312 5.953125 39.097656 L 5.953125 38.824219 C 5.953125 39.925781 6.839844 40.808594 7.9375 40.808594 L 39.691406 40.808594 C 40.789062 40.808594 41.675781 39.925781 41.675781 38.824219 L 41.675781 39.097656 C 41.675781 40.195312 40.789062 41.082031 39.691406 41.082031 Z M 7.9375 41.082031 "/>
<path style=" stroke:none;fill-rule:nonzero;fill:rgb(12.941177%,12.941177%,12.941177%);fill-opacity:1;" d="M 7.9375 5.195312 C 6.761719 5.195312 5.8125 6.144531 5.8125 7.320312 L 5.8125 39.074219 C 5.8125 40.25 6.761719 41.199219 7.9375 41.199219 L 39.691406 41.199219 C 40.867188 41.199219 41.816406 40.25 41.816406 39.074219 L 41.816406 7.320312 C 41.816406 6.144531 40.867188 5.195312 39.691406 5.195312 Z M 7.9375 5.476562 L 39.691406 5.476562 C 40.714844 5.476562 41.535156 6.296875 41.535156 7.320312 L 41.535156 39.074219 C 41.535156 40.097656 40.714844 40.917969 39.691406 40.917969 L 7.9375 40.917969 C 6.914062 40.917969 6.09375 40.097656 6.09375 39.074219 L 6.09375 7.320312 C 6.09375 6.296875 6.914062 5.476562 7.9375 5.476562 Z M 7.9375 5.476562 "/>
</g>
</svg>
